creators/img/activity/like.svg

<svg width="18" height="18" viewBox="0 0 18 18" fill="none" xmlns="http://www.w3.org/2000/svg">
<path d="M17.033 9.46447C17.3939 8.98752 17.5938 8.40314 17.5938 7.79514C17.5938 6.83049 17.0545 5.9174 16.1865 5.40822C15.9631 5.27715 15.7087 5.20817 15.4496 5.20842H10.2977L10.4266 2.56799C10.4566 1.9299 10.2311 1.32404 9.79277 0.862125C9.57768 0.634451 9.31819 0.453306 9.03033 0.329883C8.74246 0.20646 8.43235 0.143382 8.11914 0.144547C7.00195 0.144547 6.01367 0.8965 5.71719 1.97287L3.87168 8.65451H3.86523V17.8498H14.0123C14.21 17.8498 14.4033 17.8112 14.5816 17.7338C15.6043 17.2977 16.2639 16.2987 16.2639 15.1901C16.2639 14.9194 16.2252 14.6529 16.1479 14.3951C16.5088 13.9182 16.7086 13.3338 16.7086 12.7258C16.7086 12.4551 16.6699 12.1887 16.5926 11.9309C16.9535 11.4539 17.1533 10.8695 17.1533 10.2615C17.149 9.99084 17.1104 9.72228 17.033 9.46447ZM0.40625 9.34201V17.1623C0.40625 17.5426 0.713477 17.8498 1.09375 17.8498H2.49023V8.65451H1.09375C0.713477 8.65451 0.40625 8.96174 0.40625 9.34201Z" fill="#888888"/>
</svg>

<svg width="18" height="18" fill="none" xmlns="http://www.w3.org/2000/svg"><path d="M17.033 9.464c.36-.476.56-1.06.56-1.669 0-.965-.538-1.878-1.407-2.387a1.453 1.453 0 00-.736-.2h-5.152l.129-2.64A2.3 2.3 0 009.793.862 2.29 2.29 0 008.119.145a2.498 2.498 0 00-2.402 1.828L3.872 8.655h-.007v9.195h10.147c.198 0 .391-.039.57-.116a2.762 2.762 0 001.566-3.339 2.765 2.765 0 00.445-2.464 2.77 2.77 0 00.56-1.67 2.933 2.933 0 00-.12-.797zM.406 9.342v7.82c0 .38.307.688.688.688H2.49V8.655H1.094a.687.687 0 00-.688.687z" fill="#888"/></svg>
